X:442
T:La Escosa (MG 63)
C:Tradicional
S:Msica Tradicional Asturiana, (C) Tello & Tito. Asturies, 2001.
S:http://pagina.de/MusTradAst <telloytito@asturies.org>
A:Asturies
Z:Mtodu de Gaita 63
M:2/4
L:1/4
Q:1/4=140
E:Comp.
K:C
|:F D|E C|D C:|
|:F F|F E|G G|G F/E/:|
|F F|F E/D/|E D/E/|C D/E/|C2|C2|
|:A A|A G|B B|B A|c c|c B/A/|B B|B A||
c c|c B/A/|B B|B A/B/|G A/B/|G A/B/|G2|G2:|
|:F D|E C|D C:|
|:F F|F E|G G|G F/E/:|
|F F|F E/D/|E D/E/|C D/E/|C C/E/|C2||
